X: 21
T: An Adventure at Margate
%R: jig
B: "Twenty Four Country Dances for the Year 1780", Thomas Skillern, ed. p.11 #1
F: http://www.vwml.org/browse/browse-collections-dance-tune-books/browse-skillerns1780#
Z: 2014 John Chambers <jc:trillian.mit.edu>
M: 6/8
L: 1/8
K: C
|:\
gec gec | a2g g3 | gec gec | f2e e3 |\
gec gec | afc afc | efg gfe | c3 c3 :|
|:\
def fdB | gec gec | def fdB | gec ceg |\
afa afa | geg geg | agf efd | ccc c3 :|
%%begintext align
%%   Right hands across Left hands back again .|.
%% Lead down two Cu.s up again and cast off :|. the
%% 1st & 2d Cu.s Ballance pas Rigadoon and half
%% Right & Left .|: Ballance pas Rigadoon & half
%% Right and Left back again :|:
%%endtext

%%sep 1 1 500
%%sep 1 1 500
